src/assets/svgs/ic-macos-logo.svg

<svg xmlns="http://www.w3.org/2000/svg" width="32" height="32" viewBox="0 0 32 32" fill="none">
  <path d="M14.8706 19.4259C14.8706 22.1176 13.4682 23.8118 11.2282 23.8118C8.98824 23.8118 7.58588 22.1082 7.58588 19.4259C7.58588 16.7247 8.98824 15.0306 11.2282 15.0306C13.4682 15.0306 14.8706 16.7247 14.8706 19.4259ZM17.9953 9.92941L17.0165 9.99529C16.4612 10.0329 16.2165 10.2306 16.2165 10.5882C16.2165 10.9647 16.5271 11.1718 16.96 11.1718C17.5529 11.1718 17.9953 10.7859 17.9953 10.2682V9.92941ZM32 16C32 24.9318 24.9318 32 16 32C7.06824 32 0 24.9318 0 16C0 7.06824 7.06824 0 16 0C24.9318 0 32 7.06824 32 16ZM19.7082 9.73176C19.7082 11.0306 20.4235 11.8212 21.5906 11.8212C22.5788 11.8212 23.2 11.2659 23.3035 10.4753H22.5318C22.4282 10.9082 22.0894 11.1435 21.5906 11.1435C20.9318 11.1435 20.5271 10.6071 20.5271 9.73176C20.5271 8.86588 20.9318 8.34824 21.5906 8.34824C22.1176 8.34824 22.4471 8.64941 22.5318 9.03529H23.3035C23.2 8.26353 22.5976 7.68 21.5906 7.68C20.4235 7.67059 19.7082 8.46118 19.7082 9.73176ZM8.95059 7.75529V11.7459H9.74118V9.29882C9.74118 8.78118 10.1082 8.36706 10.5882 8.36706C11.0588 8.36706 11.36 8.64941 11.36 9.10118V11.7459H12.1318V9.22353C12.1318 8.74353 12.4612 8.36706 12.9788 8.36706C13.4965 8.36706 13.7506 8.63059 13.7506 9.18588V11.7459H14.5412V8.98823C14.5412 8.16 14.0706 7.67059 13.2612 7.67059C12.7059 7.67059 12.2447 7.95294 12.0471 8.38588H11.9812C11.8024 7.95294 11.4259 7.67059 10.88 7.67059C10.3435 7.67059 9.93882 7.93412 9.76941 8.38588H9.71294V7.74588L8.95059 7.75529ZM16.2729 19.4259C16.2729 15.9529 14.3341 13.7694 11.2282 13.7694C8.12235 13.7694 6.18353 15.9529 6.18353 19.4259C6.18353 22.8988 8.12235 25.0729 11.2282 25.0729C14.3341 25.0729 16.2729 22.8894 16.2729 19.4259ZM16.7624 11.8118C17.2894 11.8118 17.7224 11.5859 17.9671 11.1812H18.0329V11.7459H18.7953V9.01647C18.7953 8.17882 18.2306 7.68 17.2235 7.68C16.3106 7.68 15.6706 8.12235 15.5859 8.79059H16.3482C16.4329 8.49882 16.7435 8.33882 17.1859 8.33882C17.7224 8.33882 18.0047 8.58353 18.0047 9.02588V9.37412L16.9224 9.44C15.9718 9.49647 15.4353 9.91059 15.4353 10.6353C15.4259 11.3506 15.9906 11.8118 16.7624 11.8118ZM25.3929 21.7788C25.3929 20.2259 24.4894 19.3224 22.2118 18.8235L20.9976 18.56C19.5012 18.2306 18.9176 17.6376 18.9176 16.7812C18.9176 15.6706 19.9718 15.0024 21.3365 15.0024C22.7671 15.0024 23.7082 15.7365 23.8306 16.9412H25.1953C25.1294 15.0871 23.5576 13.7788 21.3741 13.7788C19.1059 13.7788 17.5153 15.0494 17.5153 16.8471C17.5153 18.4 18.4659 19.3976 20.6588 19.8776L21.8729 20.1412C23.3882 20.4706 24 21.0824 24 21.9953C24 23.0682 22.9176 23.8494 21.44 23.8494C19.8682 23.8494 18.7765 23.1341 18.6165 21.9576H17.2518C17.3835 23.8494 18.9741 25.0729 21.3647 25.0729C23.8024 25.0729 25.3929 23.8024 25.3929 21.7788Z" fill="#333333"/>
</svg>

<svg fill="none" viewBox="0 0 32 32"><path fill="var(--text-prominent)" d="M14.87 19.426c0 2.692-1.402 4.386-3.642 4.386s-3.642-1.704-3.642-4.386c0-2.701 1.402-4.395 3.642-4.395s3.643 1.694 3.643 4.395zm3.125-9.497l-.979.066c-.555.038-.8.236-.8.593 0 .377.311.584.744.584.593 0 1.035-.386 1.035-.904V9.93zM32 16c0 8.932-7.068 16-16 16S0 24.932 0 16 7.068 0 16 0s16 7.068 16 16zM19.708 9.732c0 1.299.716 2.09 1.883 2.09.988 0 1.609-.556 1.712-1.347h-.771c-.104.433-.443.668-.941.668-.66 0-1.064-.536-1.064-1.411 0-.866.405-1.384 1.064-1.384.527 0 .856.301.94.687h.773c-.104-.771-.706-1.355-1.713-1.355-1.168-.01-1.883.781-1.883 2.052zM8.951 7.755v3.99h.79V9.3c0-.518.367-.932.847-.932.47 0 .772.282.772.734v2.645h.772V9.224c0-.48.33-.857.847-.857.518 0 .772.264.772.819v2.56h.79V8.988c0-.828-.47-1.317-1.28-1.317-.555 0-1.016.282-1.214.715h-.066c-.179-.433-.555-.715-1.101-.715-.537 0-.941.263-1.11.715h-.057v-.64l-.762.01zm7.322 11.67c0-3.472-1.939-5.656-5.045-5.656s-5.044 2.184-5.044 5.657 1.938 5.647 5.044 5.647 5.045-2.184 5.045-5.647zm.49-7.613c.526 0 .96-.226 1.204-.63h.066v.564h.762v-2.73c0-.837-.564-1.336-1.572-1.336-.912 0-1.552.442-1.637 1.11h.762c.085-.291.396-.451.838-.451.536 0 .819.245.819.687v.348l-1.083.066c-.95.056-1.487.47-1.487 1.195-.01.716.556 1.177 1.327 1.177zm8.63 9.967c0-1.553-.904-2.457-3.181-2.956l-1.214-.263c-1.497-.33-2.08-.922-2.08-1.779 0-1.11 1.054-1.779 2.419-1.779 1.43 0 2.371.734 2.494 1.94h1.364c-.066-1.855-1.637-3.163-3.82-3.163-2.27 0-3.86 1.27-3.86 3.068 0 1.553.95 2.55 3.144 3.03l1.214.264c1.515.33 2.127.941 2.127 1.854 0 1.073-1.082 1.854-2.56 1.854-1.572 0-2.664-.715-2.824-1.891h-1.364c.132 1.891 1.722 3.115 4.113 3.115 2.437 0 4.028-1.27 4.028-3.294z"/></svg>
